src/images_karasa_jaga_svg/cmd/lc_starshapes.star4.svg

<svg height="24" viewBox="0 0 24 24" width="24" xmlns="http://www.w3.org/2000/svg" xmlns:xlink="http://www.w3.org/1999/xlink"><linearGradient id="a" gradientUnits="userSpaceOnUse" x1="63.9991" x2="63.9991" y1="128" y2=".0018"><stop offset="0" stop-color="#fff"/><stop offset=".46428573" stop-color="#fff"/><stop offset=".78125" stop-color="#f1f1f1"/><stop offset=".90625" stop-color="#eaeaea"/><stop offset="1" stop-color="#dfdfdf"/></linearGradient><linearGradient id="b" gradientUnits="userSpaceOnUse" x1="5.822887" x2="122.17711" y1="63.999722" y2="63.999722"><stop offset="0" stop-color="#7c9fcf"/><stop offset=".5" stop-color="#7c9ece"/><stop offset="1" stop-color="#7b9dcf"/></linearGradient><g transform="matrix(.171875 0 0 .171875 1 1)"><path d="m64.148438 5.8242188a5.8193537 5.8193537 0 0 0 -5.792969 4.4023432l-9.626953 38.501954-38.501954 9.626953a5.8193537 5.8193537 0 0 0 0 11.289062l38.501954 9.626953 9.626953 38.501956a5.8193537 5.8193537 0 0 0 11.289062 0l9.626953-38.501956 38.501956-9.626953a5.8193537 5.8193537 0 0 0 0-11.289062l-38.501956-9.626953-9.626953-38.501954a5.8193537 5.8193537 0 0 0 -5.496093-4.4023432z" fill="url(#b)"/><path d="m64.000001 116.362-10.472402-41.889601-41.889599-10.472398 41.889601-10.472402 10.472398-41.889599 10.472402 41.889601 41.889599 10.472398-41.889601 10.472402z" fill="url(#a)"/></g></svg>

<?xml version="1.0" encoding="UTF-8" standalone="no"?>
<svg
   xmlns:dc="http://purl.org/dc/elements/1.1/"
   xmlns:cc="http://creativecommons.org/ns#"
   xmlns:rdf="http://www.w3.org/1999/02/22-rdf-syntax-ns#"
   xmlns:svg="http://www.w3.org/2000/svg"
   xmlns="http://www.w3.org/2000/svg"
   xmlns:xlink="http://www.w3.org/1999/xlink"
   xmlns:sodipodi="http://sodipodi.sourceforge.net/DTD/sodipodi-0.dtd"
   xmlns:inkscape="http://www.inkscape.org/namespaces/inkscape"
   height="128"
   viewBox="0 0 128 128"
   width="128"
   version="1.1"
   id="svg31"
   sodipodi:docname="lc_starshapes.star4.svg"
   inkscape:version="0.92.3 (unknown)"
   inkscape:export-filename="/home/rizmut/Dokumen/Rizmut/Github/libreoffice-style-karasa-jaga/build/images_karasa_jaga/cmd/lc_starshapes.star4.png"
   inkscape:export-xdpi="16.5"
   inkscape:export-ydpi="16.5">
  <metadata
     id="metadata37">
    <rdf:RDF>
      <cc:Work
         rdf:about="">
        <dc:format>image/svg+xml</dc:format>
        <dc:type
           rdf:resource="http://purl.org/dc/dcmitype/StillImage" />
        <dc:title></dc:title>
      </cc:Work>
    </rdf:RDF>
  </metadata>
  <defs
     id="defs35">
    <linearGradient
       id="linearGradient3369">
      <stop
         id="stop3372"
         offset="0"
         style="stop-color:#ffffff;stop-opacity:1;" />
      <stop
         style="stop-color:#ffffff;stop-opacity:1;"
         offset="0.46428573"
         id="stop3374" />
      <stop
         style="stop-color:#f1f1f1;stop-opacity:1;"
         offset="0.78125"
         id="stop3376" />
      <stop
         id="stop3378"
         offset="0.90625"
         style="stop-color:#eaeaea;stop-opacity:1;" />
      <stop
         id="stop3384"
         offset="1"
         style="stop-color:#dfdfdf;stop-opacity:1;" />
    </linearGradient>
    <linearGradient
       id="linearGradient7422">
      <stop
         style="stop-color:#7c9fcf;stop-opacity:1"
         offset="0"
         id="stop7424" />
      <stop
         id="stop5348"
         offset="0.5"
         style="stop-color:#7c9ece;stop-opacity:1" />
      <stop
         id="stop7426"
         offset="1"
         style="stop-color:#7b9dcf;stop-opacity:1" />
    </linearGradient>
    <linearGradient
       inkscape:collect="always"
       xlink:href="#linearGradient3369"
       id="linearGradient1472"
       x1="63.9991"
       y1="128"
       x2="63.9991"
       y2="0.0018"
       gradientUnits="userSpaceOnUse" />
    <linearGradient
       inkscape:collect="always"
       xlink:href="#linearGradient7422"
       id="linearGradient1484"
       x1="5.8228874"
       y1="63.999722"
       x2="122.17711"
       y2="63.999722"
       gradientUnits="userSpaceOnUse" />
  </defs>
  <sodipodi:namedview
     pagecolor="#ffffff"
     bordercolor="#666666"
     borderopacity="1"
     objecttolerance="10"
     gridtolerance="10"
     guidetolerance="10"
     inkscape:pageopacity="0"
     inkscape:pageshadow="2"
     inkscape:window-width="1366"
     inkscape:window-height="706"
     id="namedview33"
     showgrid="true"
     inkscape:zoom="2"
     inkscape:cx="6.3423794"
     inkscape:cy="79.700474"
     inkscape:window-x="0"
     inkscape:window-y="0"
     inkscape:window-maximized="0"
     inkscape:current-layer="svg31"
     inkscape:snap-global="true">
    <inkscape:grid
       type="xygrid"
       id="grid844"
       spacingx="5.8181"
       spacingy="5.8181"
       empspacing="1" />
  </sodipodi:namedview>
  <linearGradient
     id="a">
    <stop
       offset="0"
       stop-color="#f9f9fa"
       id="stop2" />
    <stop
       offset="1"
       stop-color="#f9f9fa"
       stop-opacity="0"
       id="stop4" />
  </linearGradient>
  <linearGradient
     id="b"
     gradientUnits="userSpaceOnUse"
     x1="42.276669"
     x2="-13.469376"
     xlink:href="#a"
     y1="50.867565"
     y2="104.97279" />
  <linearGradient
     id="c"
     gradientUnits="userSpaceOnUse"
     x1="-1.817377"
     x2="2.172436"
     xlink:href="#a"
     y1="55.003803"
     y2="116.784" />
  <path
     sodipodi:type="inkscape:offset"
     inkscape:radius="5.8187718"
     inkscape:original="M 64 11.638672 L 53.527344 53.527344 L 11.638672 64 L 53.527344 74.472656 L 64 116.36133 L 74.472656 74.472656 L 116.36133 64 L 74.472656 53.527344 L 64 11.638672 z "
     style="opacity:1;fill:url(#linearGradient1484);fill-opacity:1.0;stroke:none;stroke-width:6.80303288;stroke-linecap:round;stroke-linejoin:round;stroke-miterlimit:4;stroke-dasharray:none;stroke-dashoffset:0;stroke-opacity:1"
     id="path1474"
     d="m 64.148438,5.8242188 a 5.8193537,5.8193537 0 0 0 -5.792969,4.4023432 l -9.626953,38.501954 -38.501954,9.626953 a 5.8193537,5.8193537 0 0 0 0,11.289062 l 38.501954,9.626953 9.626953,38.501956 a 5.8193537,5.8193537 0 0 0 11.289062,0 l 9.626953,-38.501956 38.501956,-9.626953 a 5.8193537,5.8193537 0 0 0 0,-11.289062 L 79.271484,48.728516 69.644531,10.226562 A 5.8193537,5.8193537 0 0 0 64.148438,5.8242188 Z" />
  <path
     sodipodi:type="star"
     style="opacity:1;fill:url(#linearGradient1472);fill-opacity:1;stroke:none;stroke-width:6.80303288;stroke-linecap:round;stroke-linejoin:round;stroke-miterlimit:4;stroke-dasharray:none;stroke-dashoffset:0;stroke-opacity:1"
     id="path1464"
     sodipodi:sides="4"
     sodipodi:cx="64"
     sodipodi:cy="64"
     sodipodi:r1="52.362"
     sodipodi:r2="14.81021"
     sodipodi:arg1="1.5707963"
     sodipodi:arg2="2.3561945"
     inkscape:flatsided="false"
     inkscape:rounded="0"
     inkscape:randomized="0"
     d="M 64.000001,116.362 53.527599,74.472399 11.638,64.000001 53.527601,53.527599 63.999999,11.638 74.472401,53.527601 116.362,63.999999 74.472399,74.472401 Z" />
</svg>
